src/Assets/icon/icon_setting.svg

<svg fill="none" height="24" viewBox="0 0 24 24" width="24" xmlns="http://www.w3.org/2000/svg"><path d="m2.13671 15.271 2.04283 3.46c.13563.2295.3588.3969.62044.4653.26165.0685.54035.0324.77482-.1003l1.4259-.806c.59242.457 1.24715.832 1.93559 1.112v1.598c0 .2652.10761.5196.29917.7071.19155.1875.45135.2929.72225.2929h4.08569c.2709 0 .5307-.1054.7222-.2929.1916-.1875.2992-.4419.2992-.7071v-1.598c.6938-.2828 1.345-.6569 1.9356-1.112l1.4259.806c.4872.275 1.1144.11 1.3953-.365l2.0428-3.46c.1344-.2298.1707-.5023.1008-.7581-.0698-.2559-.24-.4744-.4736-.6079l-1.4014-.793c.1095-.7375.1088-1.4867-.0021-2.224l1.4014-.793c.4862-.275.6548-.89.3728-1.366l-2.0428-3.46c-.1356-.2295-.3588-.39688-.6204-.46533-.2617-.06844-.5404-.03236-.7749.10033l-1.4259.806c-.5898-.45562-1.2407-.82978-1.9345-1.112v-1.598c0-.26522-.1076-.51957-.2992-.70711-.1915-.18753-.4513-.29289-.7222-.29289h-4.08571c-.2709 0-.5307.10536-.72226.29289-.19155.18754-.29916.44189-.29916.70711v1.598c-.69383.28281-1.34502.65692-1.93559 1.112l-1.42488-.806c-.11607-.06583-.24425-.10861-.37722-.1259-.13297-.01728-.26812-.00873-.39771.02517s-.25108.09249-.35752.1724c-.10645.07992-.19575.17959-.26281.29333l-2.04283 3.46c-.13444.2298-.17068.5023-.10086.75815.06983.25584.24008.47432.47367.60785l1.40139.793c-.11018.7374-.11018 1.4866 0 2.224l-1.40139.793c-.48619.275-.65473.89-.37281 1.366zm9.86279-7.271c2.2533 0 4.0857 1.794 4.0857 4s-1.8324 4-4.0857 4c-2.25323 0-4.08565-1.794-4.08565-4s1.83242-4 4.08565-4z" fill="#595959"/></svg>

<svg width="24" height="24" viewBox="0 0 24 24" fill="none" xmlns="http://www.w3.org/2000/svg">
<path d="M2.13671 15.271L4.17954 18.731C4.31517 18.9605 4.53834 19.1279 4.79998 19.1963C5.06163 19.2648 5.34033 19.2287 5.5748 19.096L7.0007 18.29C7.59312 18.747 8.24785 19.122 8.93629 19.402V21C8.93629 21.2652 9.0439 21.5196 9.23546 21.7071C9.42701 21.8946 9.68681 22 9.95771 22H14.0434C14.3143 22 14.5741 21.8946 14.7656 21.7071C14.9572 21.5196 15.0648 21.2652 15.0648 21V19.402C15.7586 19.1192 16.4098 18.7451 17.0004 18.29L18.4263 19.096C18.9135 19.371 19.5407 19.206 19.8216 18.731L21.8644 15.271C21.9988 15.0412 22.0351 14.7687 21.9652 14.5129C21.8954 14.257 21.7252 14.0385 21.4916 13.905L20.0902 13.112C20.1997 12.3745 20.199 11.6253 20.0881 10.888L21.4895 10.095C21.9757 9.82 22.1443 9.205 21.8623 8.729L19.8195 5.269C19.6839 5.0395 19.4607 4.87212 19.1991 4.80367C18.9374 4.73523 18.6587 4.77131 18.4242 4.904L16.9983 5.71C16.4085 5.25438 15.7576 4.88022 15.0638 4.598V3C15.0638 2.73478 14.9562 2.48043 14.7646 2.29289C14.5731 2.10536 14.3133 2 14.0424 2H9.95669C9.68579 2 9.42599 2.10536 9.23443 2.29289C9.04288 2.48043 8.93527 2.73478 8.93527 3V4.598C8.24144 4.88081 7.59025 5.25492 6.99968 5.71L5.5748 4.904C5.45873 4.83817 5.33055 4.79539 5.19758 4.7781C5.06461 4.76082 4.92946 4.76937 4.79987 4.80327C4.67028 4.83717 4.54879 4.89576 4.44235 4.97567C4.3359 5.05559 4.2466 5.15526 4.17954 5.269L2.13671 8.729C2.00227 8.9588 1.96603 9.2313 2.03585 9.48715C2.10568 9.74299 2.27593 9.96147 2.50952 10.095L3.91091 10.888C3.80073 11.6254 3.80073 12.3746 3.91091 13.112L2.50952 13.905C2.02333 14.18 1.85479 14.795 2.13671 15.271ZM11.9995 8C14.2528 8 16.0852 9.794 16.0852 12C16.0852 14.206 14.2528 16 11.9995 16C9.74627 16 7.91385 14.206 7.91385 12C7.91385 9.794 9.74627 8 11.9995 8Z" fill="#595959"/>
</svg>
